X:5193
T:Polska efter Larsh\"oga Jonke
O:england
S:uppt. efter Ante Sundin (Sv.L.Medelpad nr 179)
N:16-delspolska fr\aa{}n Medelpad
R:Polska
M:3/4
L:1/16
A:Attmar, Medelpad
K:Am
AB^cd e2e2 {fg}f2ef | g2ag f2ed efe^c |\
A2B^c d2cd B3d | ^cdec A2BA ^GABG|\
AB^cd e2e2 {fg}f2ef | g2ag f2ed efe^c |\
A2B^c d2cd B3d | ^cdec c2[A2A2] [A4A4] :: \
K:D
A3g f3e f2a2 | {b}a2gb e2fg e2fg |\
agaf d2eg f2ed | efec ABA^G B2A2|\
A3g f3e f2a2 | {b}a2gb e2fg e2fg |\
agaf d2eg f2ed | Acec [D8d8]:|


